X: 2413
T: NEGRO SAND DANCE
R: hornpipe
B: James Kerr "Merry Melodies" v.2 p.46 #413
Z: 2016 John Chambers <jc:trillian.mit.edu>
M: C
L: 1/8
K: Em
|:\
E>FG>A B>cA>c | B>cA>c B>AG>F |\
E>FG>A B>cA>c |[1 B>ee>^d e>BG>F :|[2 B>ee>^d e2 H|]
|: B2 |\
e>^de>f e>=dB>^c | d>^cd>e d>BA>F |\
[1 e>^de>f e>=dB>^c | d>BA>F E2 :|\
[2 g>ef>^d e>Bc>A | B>GA>F E>DB,2 |]
